X:205
T:Scotch Sett Of Quadrilles No.5. Le4.205
M:2/4
L:1/8
Q:2/4=50
B:L.Leadley MS#4 c1850
Z:Village Music Project 2016 Steve Mansfield
K:F
a/g/ | ff cf/e/ | dd d'>c' | g/c'/d'/c'/ g/c'/d'/c'/ | aff a/g/ |
ff cf/[ec]/ | ddd'>c' | g/c'/d'/c'/ g/c'/d'/c'/ | aff :|
|: c | {g}f/e/f/g/ f/b/a/g/ | {f}e/d/e/f/ e/g/f/e/ | d/c/d/e/ f/e/d/=c/ | Add e/f/ |
cA B/A/G/F/ | GG Ag | c>A {c}B/A/c/G/ | AFF :|]

